X: 1
T: Mucky Bogs Of Crawcwellt, The
M: 4/4
L: 1/8
R: hornpipe
K: Gmaj
|: (3DEF | 
G>DB>G d>Bg>d | b>gf>g d>Bg>d | c>ae>c B>gd>B | (3cBA (3BAG A>F (3DEF |
G>DB>G d>Bg>d | b>g (3ggg d>Bg>d | e>c'g>e d>bg>d | (3fed (3cBA G2 :|
|: B>c | 
d>g (3ggg b>g (3ggg | d>g (3ggg b>ag>f | e>a (3aaa c'>a (3aaa | e>a (3aaa (3c'ba (3gfe |
d>g (3ggg b>g (3ggg | d>g (3ggg b>ag>f | e>c'g>e d>bg>d | (3fed (3cBA G2 :|
